svgs/regular/usb-drive.svg

<svg xmlns="http://www.w3.org/2000/svg" viewBox="0 0 640 512"><!--! Font Awesome Pro 6.6.0 by @fontawesome - https://fontawesome.com License - https://fontawesome.com/license (Commercial License) Copyright 2024 Fonticons, Inc. --><path d="M64 144c-8.8 0-16 7.2-16 16l0 192c0 8.8 7.2 16 16 16l336 0 0-224L64 144zM0 160c0-35.3 28.7-64 64-64l352 0c17.7 0 32 14.3 32 32l0 256c0 17.7-14.3 32-32 32L64 416c-35.3 0-64-28.7-64-64L0 160zm608-32c17.7 0 32 14.3 32 32l0 192c0 17.7-14.3 32-32 32l-128 0 0-256 128 0zm-48 56a24 24 0 1 0 0 48 24 24 0 1 0 0-48zM536 304a24 24 0 1 0 48 0 24 24 0 1 0 -48 0z"/></svg>

<svg xmlns="http://www.w3.org/2000/svg" viewBox="0 0 640 512"><!--! Font Awesome Pro 6.4.2 by @fontawesome - https://fontawesome.com License - https://fontawesome.com/license (Commercial License) Copyright 2023 Fonticons, Inc. --><path d="M64 144c-8.8 0-16 7.2-16 16V352c0 8.8 7.2 16 16 16H400V144H64zM0 160c0-35.3 28.7-64 64-64H416c17.7 0 32 14.3 32 32V384c0 17.7-14.3 32-32 32H64c-35.3 0-64-28.7-64-64V160zm608-32c17.7 0 32 14.3 32 32V352c0 17.7-14.3 32-32 32H480V128H608zm-48 56a24 24 0 1 0 0 48 24 24 0 1 0 0-48zM536 304a24 24 0 1 0 48 0 24 24 0 1 0 -48 0z"/></svg>
